X: 10781
U: Q=!diminuendo(!
U: q=!diminuendo)!
M: 2/4
L: 1/16
K: Bb
f2 |\
(fg.f=e) Qf2qb2 | (fg).f.=e Qf2qd2 | QB2qB2 Qc2qc2 | (d=ed.c) QB2qf2 |\
fgf=e Qf2qb2 | (ga).g.^f Qg2qe2 | "^>"d2c2B2"^>"A2 | (c4 B2) H|]
(cd).c.=B Qc2qc2 | Qf2qd2 Q.B2q.F2 | (de).d.^c Qd2qd2 | Qg2qe2 Qc2q.a2 |\
.b2a2 .b2a2 | (bB).c.d (ef).g.a | (ba).g.f (ed).c.B | (d4 "^D.C."c2) |]
d2 |\
d2dd d2d2 | (g4 ^f2)d2 | d2dd d2d2 | ([b4g4] [a2^f2])d2 |\
ga.b.g (^fg).a.f | (ga).b.g (^fg).a.f | (Qg2qd2) Q.B2q.G2 | "^D.C."d6 |]


